X:1
T:Spires, LM
T:Spires, LM
T:Joseph Klug, 1543; harmony by Bach
T:Public Domain Courtesy of the Cyber Hymnal™
C:Joseph Klug, 1543; harmony by Bach
Z:Public Domain
Z:Courtesy of the Cyber Hymnal™
%%score ( 1 2 ) ( 3 4 )
L:1/8
Q:1/4=100
M:4/4
K:G
V:1 treble 
V:2 treble 
V:3 bass 
V:4 bass 
V:1
 (EF) G2 (FE) [B,^D]2 | ([B,E][^DF]) [EG]2 [DF]2 [B,E]2 | [EG]2 A2 [FA]2 [DGB]2 | %3
 [B,EG]2 [EA]2 A2 [^DB]2- | [DB]2 [EB]2 c2 (Bc) | (dc) [DGB]2 ([FA]G) A2 | %6
 [DG]2 [B,FB]2 [B,EG]2 G2 [B,^D] | [B,EG]2 [DF]2 (EC) [B,^D]2 | [B,E]8 |] %9
V:2
 x2 (E^D) C2 x2 | x8 | x2 (DE) x4 | x2 (EG) (FE) x2 | x4 (EF) [=DG]2 | [DA]2 x3 (GF) x | %6
 x6 [B,-E] x2 | x4 E2 x2 | x8 |] %9
V:3
 (G,A,) [E,B,]2 (A,G,) F,2 | ([G,,G,][F,,F,A,]) ([E,,E,B,][A,,C]) (F,B,) [E,,G,]2 | %2
 [E,B,]2 [F,A,]2 [D,D]2 (G,F,) | (E,D,) (C,B,,) [C,A,]2 [B,,F,]2- | %4
 [B,,F,]2 [E,G,]2 [A,,A,]2 G,,2 | F,,2 G,,2 (CB,) (CA,) | [G,B,]2 ^D,2 (E,E,,) F,,2 x | %7
 (G,,A,,) (B,A,) G,2 (F,G,/A,/) | [E,,E,G,]8 |] %9
V:4
 [E,,E,]2 x A,,2 (B,,A,,) x | x4 B,,2 x2 | x8 | x8 | x8 | x4 D,2 D,2 | x9 | x2 B,,2 (C,A,,) B,,2 | %8
 x8 |] %9

